public/static/img/assets/status_success.svg

<svg width="60" height="60" fill="none" xmlns="http://www.w3.org/2000/svg"><path d="M30 0C13.431 0 0 13.431 0 30c0 16.569 13.431 30 30 30 16.566 0 30-13.431 30-30C60 13.431 46.566 0 30 0Zm14.736 21.153c-2.631 3.519-12 14.514-16.812 19.524-2.112 1.665-3.168.777-3.657.318-2.943-2.985-6.642-7.794-8.214-10.116-.345-.342-.237-.726.057-1.041l1.71-1.773c.39-.336.681-.297 1.143.039l6.411 4.995c.714.555.312.624 1.206-.201l15.48-14.277c1.05-.837 1.908.399 1.5-.027l1.194 1.245a1.02 1.02 0 0 1-.018 1.314Z" fill="#00D77C"/></svg>

<svg width="60" height="60" viewBox="0 0 60 60" fill="none" xmlns="http://www.w3.org/2000/svg">
<path d="M30 0C13.431 0 0 13.431 0 30C0 46.569 13.431 60 30 60C46.566 60 60 46.569 60 30C60 13.431 46.566 0 30 0ZM44.736 21.153C42.105 24.672 32.736 35.667 27.924 40.677C25.812 42.342 24.756 41.454 24.267 40.995C21.324 38.01 17.625 33.201 16.053 30.879C15.708 30.537 15.816 30.153 16.11 29.838L17.82 28.065C18.21 27.729 18.501 27.768 18.963 28.104L25.374 33.099C26.088 33.654 25.686 33.723 26.58 32.898L42.06 18.621C43.11 17.784 43.968 19.02 43.56 18.594L44.754 19.839C44.9064 20.025 44.9881 20.2589 44.9848 20.4993C44.9815 20.7397 44.8934 20.9712 44.736 21.153Z" fill="#00D77C"/>
</svg>
